!!!COM: Messiaen, Olivier (Eugène Prosper Charles)
!!!OTL: Vingt Regards sur l'Enfant-Jésus (Twenty Gazes on the Christ Child) for Piano
!!!OMV: V: Regard du Fils sur le Fils (Contemplation of the Son upon the Son)
!!!example: 746
!!!work: Mes-20
**kern	**dynam	**kern	**kern	**dynam
*part2	*part2	*part1	*part1	*part1
*staff3	*	*staff2	*staff1	*
*I"Piano	*	*I"Piano	*	*
*I'Pno.	*	*I'Pno.	*	*
*clefG2	*	*clefG2	*clefG2	*
*k[]	*	*k[]	*k[]	*
*C:	*	*C:	*C:	*
*M2/4	*	*M2/4	*M2/4	*
*MM121	*	*MM121	*MM121	*
*	*	*8va	*8va	*
=1	=1	=1	=1	=1
2r	.	4.aa-X 4.dddn 4.eee-X 4.aaan	4ccc 4ddd 4ggg	pp ppp
.	.	.	4ddd-X 4fff#X 4bbb-X	.
.	.	[8ddn [8aan [8aa-X [8eee-X	.	.
=2	=2	=2	=2	=2
4r	.	4ddn] 4aan] 4aa-X] 4eee-X]	4gg 4ccc 4dddn	.
(8qA#X~/ 8qc#X 8qf#X 8qa#X	p	.	.	.
4A#X) 4c#X 4f#X 4a#X	.	[4aan [4ccc-X [4fffn [4aaa-X	8cccnL 8fff#X 8ggg	.
.	.	.	[8ddd-XJ [8ggg [8aaa-X	.
=3	=3	=3	=3	=3
(8qA#X/	.	.	.	.
4A#X~) 4B 4en 4an 4a#X	.	8aanL] 8ccc-] 8fffn] 8aaa-]	16ddd-KL] 16ggg] 16aaa-	.
.	.	.	8dddn 8bbb-X 8dddd-X	.
.	.	[8ee-XJ [8ff [8ccc-X [8dddn	.	.
.	.	.	[16cccJk [16dddn [16ggg	.
4A#X~ 4d#X 4gn 4a#X	.	16ee-KL] 16ff] 16ccc-] 16dddn]	16cccKL] 16dddn] 16ggg]	.
.	.	[8.aanJ [8.ccc-X [8.eee-X [8.aaa-X	8ddd-X 8fff#X 8bbb-X	.
.	.	.	[16ggJk [16ccc [16dddn	.
=4	=4	=4	=4	=4
(2A#X^ 2d#X 2f#X 2a#X	.	16aanLL_ 16ccc-X_ 16eee-_ 16aaa-_	16ggKL] 16ccc] 16ddd]	.
.	.	32aanL] 32ccc-X] 32eee-] 32aaa-]	8.cccJ 8.fff#X 8.ggg	.
.	.	[32ccc-XJJ [32fff-X [32aaa-X [32bbb-X	.	.
.	.	8ccc-J_ 8fff-_ 8aaa-_ 8bbb-_	.	.
.	.	32ccc-LLL] 32fff-] 32aaa-] 32bbb-]	8.ddd-XL 8.ggg 8.aaa-X	.
.	.	[32aa-XJJ [32dddn [32eee-X [32aaan	.	.
.	.	8aa-_ 8dddn_ 8eee-_ 8aaa_	.	.
.	.	32aa-LL] 32dddn] 32eee-] 32aaa]	[16dddnJk [16bbb-X [16dddd-X	.
.	.	[32ddnJJJ [32aan [32aa-X [32eee-X	.	.
=5	=5	=5	=5	=5
[2F#X) [2A#X [2d#X [2f#X	.	8ddnL_ 8aan_ 8aa-X_ 8eee-X_	8dddL] 8bbb-] 8dddd-]	.
.	.	32ddnLL] 32aan] 32aa-X] 32eee-X]	16eeenL 16aaa-X 16ddddn	.
.	.	[32aanJ [32ccc-X [32fffn [32aaa-X	.	.
.	.	16aanJJ_ 16ccc-_ 16fffn_ 16aaa-_	[16dddJJ [16bbb-X [16dddd-X	.
.	.	16aanLL_ 16ccc-_ 16fffn_ 16aaa-_	16dddKL] 16bbb-] 16dddd-]	.
.	.	32aanL] 32ccc-] 32fffn] 32aaa-]	8.ddd-XJ 8.eeen 8.aaa-X	.
.	.	[32ee-XJJ [32ffn [32ccc-X [32dddn	.	.
.	.	8ee-J_ 8ff_ 8ccc-X_ 8dddn_	.	.
=6	=6	=6	=6	=6
4F#] 4A#] 4d#] 4f#]	.	8ee-] 8ff] 8ccc-X] 8dddn	4aa-X 4dddn 4ggg	.
.	.	[4aan [4ccc-X [4eee-X [4aaa-X	.	.
4F#X~ 4A#X 4d#X 4f#X	.	.	[4dddn [4aaa-X [4dddd-X	.
.	.	32aanLLL] 32ccc-] 32eee-] 32aaa-]	.	.
.	.	[32ccc-XJ [32fff-X [32aaa-X [32bbb-X	.	.
.	.	16ccc-XJJ_ 16fff-_ 16aaa-X_ 16bbb-_	.	.
=7	=7	=7	=7	=7
(8qA#X/	.	.	.	.
*	*	*X8va	*X8va	*
4A#X~) 4B 4en 4an 4a#X	.	8.cc-XL] 8.ff-] 8.aa-X] 8.bb-]	4ddn] 4aa- 4ddd-]	.
.	.	[16ddnJk [16ffn [16aan [16ccc-X	.	.
4A#X~ 4d#X 4gn 4a#X	.	32ddnLLL] 32ffn] 32aan] 32ccc-]	4cc 4ddn 4gg	.
.	.	[32a-XJJ [32ddn [32ee-X [32aan	.	.
.	.	8a-_ 8ddn_ 8ee-_ 8aan_	.	.
.	.	32a-LL] 32ddn] 32ee-] 32aan]	.	.
.	.	32dnJJJ 32a-X 32an 32ee-X	.	.
=	=	=	=	=
*-	*-	*-	*-	*-
!!!system-decoration: {(s1,s2)}[(s3)]
!!!CDT: 1908/12/10-1992/04/27
!!!CBL: Avignon, France
!!!CDL: Paris, France
!!!CNT: French
!!!AGN: Instrumental; Keyboard
!!!MCN:
!!!MDT: 1945/03/26
!!!MGN:
!!!MLC: Paris, France
!!!MPD: 1945
!!!MPN: Loriod, Yvonne
!!!ODT: 1944
!!!PDT: 1947
!!!excerpt-start-measure: 1
!!!excerpt-end-measure: 7
!!!excerpt-start-time: 0:00
!!!excerpt-end-time: 0:36
!!!EEV: 2020/01/25
!!!ONB: Converted from MusicXML on 2020/01/25
